X: 5306
T: Brown-Eyed Bridget
R: jig
M: 6/8
K: Adorian
A3 GAB|Age dBE|G3 DEG|deg edB|
A3 GAB|Age dBE|G3 deg|1 edB A2G:|2 edB A3||
edB Aed|BAe dBE|G3 DEG|deg edB|
edB Aed|BAe deg|age gab|age dBd|
edB Aed|BAe dBE|G3 DEG|cBA BAG|
c2A BAG|AGE GAB|gab agf|gdB A2G||

